icon-themes/breeze_svg/cmd/lc_datadatapilotrun.svg

<svg viewBox="0 0 24 24" xmlns="http://www.w3.org/2000/svg"><path d="m4 4v4h4v-4zm6 0v4h4v-4zm6 0v4h4v-4zm-11 1h2v2h-2zm12 0h2v2h-2zm-13 5v4h4v-4zm1 1h2v2h-2zm-1 5v4h4v-4z" fill="#4d4d4d"/><path d="m17 10v4 .5c0 1.385-1.115 2.5-2.5 2.5-.8187 0-1.535134-.3955-1.990234-1h1.490234v-1h-1.949219-.050781-.951172-.048828v1 2h1v-1.076172c.6319.658 1.5097 1.076172 2.5 1.076172 1.939 0 3.5-1.561 3.5-3.5v-.5-4z" fill="#1d99f3"/></svg>

<svg xmlns="http://www.w3.org/2000/svg" viewBox="0 0 24 24">
 <path 
     style="fill:#4d4d4d" 
     d="M 4 4 L 4 8 L 8 8 L 8 4 L 4 4 z M 10 4 L 10 8 L 14 8 L 14 4 L 10 4 z M 16 4 L 16 8 L 20 8 L 20 4 L 16 4 z M 5 5 L 7 5 L 7 7 L 5 7 L 5 5 z M 17 5 L 19 5 L 19 7 L 17 7 L 17 5 z M 4 10 L 4 14 L 8 14 L 8 10 L 4 10 z M 5 11 L 7 11 L 7 13 L 5 13 L 5 11 z M 4 16 L 4 20 L 8 20 L 8 16 L 4 16 z "
     />
 <path 
     style="fill:#1d99f3" 
     d="M 17 10 L 17 14 L 17 14.5 C 17 15.885 15.885 17 14.5 17 C 13.6813 17 12.964866 16.6045 12.509766 16 L 14 16 L 14 15 L 12.050781 15 L 12 15 L 11.048828 15 L 11 15 L 11 16 L 11 18 L 12 18 L 12 16.923828 C 12.6319 17.581828 13.5097 18 14.5 18 C 16.439 18 18 16.439 18 14.5 L 18 14 L 18 10 L 17 10 z "
     />
 </svg>
